static/img/kroki/fadcdc801748fb7a79009de5cd442331.svg

<?xml version="1.0" encoding="us-ascii" standalone="no"?><svg xmlns="http://www.w3.org/2000/svg" xmlns:xlink="http://www.w3.org/1999/xlink" contentStyleType="text/css" height="374px" preserveAspectRatio="none" style="width:415px;height:374px;" version="1.1" viewBox="0 0 415 374" width="415px" zoomAndPan="magnify"><defs/><g><!--class azure_network_dns_record_set--><g id="elem_azure_network_dns_record_set"><rect codeLine="23" fill="#3D176E" height="39.7891" id="azure_network_dns_record_set" rx="2.5" ry="2.5" style="stroke:#000D19;stroke-width:0.5;" width="300" x="48" y="328.58"/><ellipse cx="63" cy="348.4745" fill="#ADD1B2" rx="11" ry="11" style="stroke:#181818;stroke-width:1.0;"/><path d="M65.9688,354.1152 Q65.3906,354.412 64.75,354.5527 Q64.1094,354.7089 63.4063,354.7089 Q60.9063,354.7089 59.5781,353.0683 Q58.2656,351.412 58.2656,348.287 Q58.2656,345.162 59.5781,343.5058 Q60.9063,341.8495 63.4063,341.8495 Q64.1094,341.8495 64.75,342.0058 Q65.4063,342.162 65.9688,342.4589 L65.9688,345.1777 Q65.3438,344.5995 64.75,344.3339 Q64.1563,344.0527 63.5313,344.0527 Q62.1875,344.0527 61.5,345.1308 Q60.8125,346.1933 60.8125,348.287 Q60.8125,350.3808 61.5,351.4589 Q62.1875,352.5214 63.5313,352.5214 Q64.1563,352.5214 64.75,352.2558 Q65.3438,351.9745 65.9688,351.3964 L65.9688,354.1152 Z " fill="#000000"/><text fill="#D9B8FF" font-family="Helvetica" font-size="17" lengthAdjust="spacing" textLength="258" x="82" y="354.3598">azure_network_dns_record_set</text></g><!--class dns_record_set--><g id="elem_dns_record_set"><rect codeLine="26" fill="#3D176E" height="39.7891" id="dns_record_set" rx="2.5" ry="2.5" style="stroke:#000D19;stroke-width:0.5;" width="166" x="7" y="167.79"/><ellipse cx="22" cy="187.6845" fill="#ADD1B2" rx="11" ry="11" style="stroke:#181818;stroke-width:1.0;"/><path d="M24.9688,193.3252 Q24.3906,193.622 23.75,193.7627 Q23.1094,193.9189 22.4063,193.9189 Q19.9063,193.9189 18.5781,192.2783 Q17.2656,190.622 17.2656,187.497 Q17.2656,184.372 18.5781,182.7158 Q19.9063,181.0595 22.4063,181.0595 Q23.1094,181.0595 23.75,181.2158 Q24.4063,181.372 24.9688,181.6689 L24.9688,184.3877 Q24.3438,183.8095 23.75,183.5439 Q23.1563,183.2627 22.5313,183.2627 Q21.1875,183.2627 20.5,184.3408 Q19.8125,185.4033 19.8125,187.497 Q19.8125,189.5908 20.5,190.6689 Q21.1875,191.7314 22.5313,191.7314 Q23.1563,191.7314 23.75,191.4658 Q24.3438,191.1845 24.9688,190.6064 L24.9688,193.3252 Z " fill="#000000"/><text fill="#D9B8FF" font-family="Helvetica" font-size="17" lengthAdjust="spacing" textLength="124" x="41" y="193.5698">dns_record_set</text></g><!--class microsoft_resource--><g id="elem_microsoft_resource"><rect codeLine="29" fill="#3D176E" height="39.7891" id="microsoft_resource" rx="2.5" ry="2.5" style="stroke:#000D19;stroke-width:0.5;" width="200" x="208" y="167.79"/><ellipse cx="223" cy="187.6845" fill="#ADD1B2" rx="11" ry="11" style="stroke:#181818;stroke-width:1.0;"/><path d="M225.9688,193.3252 Q225.3906,193.622 224.75,193.7627 Q224.1094,193.9189 223.4063,193.9189 Q220.9063,193.9189 219.5781,192.2783 Q218.2656,190.622 218.2656,187.497 Q218.2656,184.372 219.5781,182.7158 Q220.9063,181.0595 223.4063,181.0595 Q224.1094,181.0595 224.75,181.2158 Q225.4063,181.372 225.9688,181.6689 L225.9688,184.3877 Q225.3438,183.8095 224.75,183.5439 Q224.1563,183.2627 223.5313,183.2627 Q222.1875,183.2627 221.5,184.3408 Q220.8125,185.4033 220.8125,187.497 Q220.8125,189.5908 221.5,190.6689 Q222.1875,191.7314 223.5313,191.7314 Q224.1563,191.7314 224.75,191.4658 Q225.3438,191.1845 225.9688,190.6064 L225.9688,193.3252 Z " fill="#000000"/><text fill="#D9B8FF" font-family="Helvetica" font-size="17" lengthAdjust="spacing" textLength="158" x="242" y="193.5698">microsoft_resource</text></g><!--class resource--><g id="elem_resource"><rect codeLine="32" fill="#3D176E" height="39.7891" id="resource" rx="2.5" ry="2.5" style="stroke:#000D19;stroke-width:0.5;" width="113" x="141.5" y="7"/><ellipse cx="156.5" cy="26.8945" fill="#ADD1B2" rx="11" ry="11" style="stroke:#181818;stroke-width:1.0;"/><path d="M159.4688,32.5352 Q158.8906,32.832 158.25,32.9727 Q157.6094,33.1289 156.9063,33.1289 Q154.4063,33.1289 153.0781,31.4883 Q151.7656,29.832 151.7656,26.707 Q151.7656,23.582 153.0781,21.9258 Q154.4063,20.2695 156.9063,20.2695 Q157.6094,20.2695 158.25,20.4258 Q158.9063,20.582 159.4688,20.8789 L159.4688,23.5977 Q158.8438,23.0195 158.25,22.7539 Q157.6563,22.4727 157.0313,22.4727 Q155.6875,22.4727 155,23.5508 Q154.3125,24.6133 154.3125,26.707 Q154.3125,28.8008 155,29.8789 Q155.6875,30.9414 157.0313,30.9414 Q157.6563,30.9414 158.25,30.6758 Q158.8438,30.3945 159.4688,29.8164 L159.4688,32.5352 Z " fill="#000000"/><text fill="#D9B8FF" font-family="Helvetica" font-size="17" lengthAdjust="spacing" textLength="71" x="175.5" y="32.7798">resource</text></g><!--reverse link dns_record_set to azure_network_dns_record_set--><g id="link_dns_record_set_azure_network_dns_record_set"><path codeLine="35" d="M113.1537,222.7232 C133.9137,253.2432 164.14,297.69 184.93,328.25 " fill="none" id="dns_record_set-backto-azure_network_dns_record_set" style="stroke:#FFAF37;stroke-width:2.0;"/><polygon fill="none" points="103.03,207.84,108.1926,226.0978,118.1148,219.3487,103.03,207.84" style="stroke:#FFAF37;stroke-width:2.0;"/></g><!--reverse link microsoft_resource to azure_network_dns_record_set--><g id="link_microsoft_resource_azure_network_dns_record_set"><path codeLine="36" d="M284.4807,222.637 C263.3407,253.157 232.49,297.69 211.32,328.25 " fill="none" id="microsoft_resource-backto-azure_network_dns_record_set" style="stroke:#FFAF37;stroke-width:2.0;"/><polygon fill="none" points="294.73,207.84,279.5484,219.2206,289.413,226.0535,294.73,207.84" style="stroke:#FFAF37;stroke-width:2.0;"/></g><!--reverse link resource to dns_record_set--><g id="link_resource_dns_record_set"><path codeLine="37" d="M174.8463,61.9332 C154.0863,92.4532 123.86,136.9 103.07,167.46 " fill="none" id="resource-backto-dns_record_set" style="stroke:#FFAF37;stroke-width:2.0;"/><polygon fill="none" points="184.97,47.05,169.8852,58.5587,179.8074,65.3078,184.97,47.05" style="stroke:#FFAF37;stroke-width:2.0;"/></g><!--reverse link resource to microsoft_resource--><g id="link_resource_microsoft_resource"><path codeLine="38" d="M221.5193,61.847 C242.6593,92.367 273.51,136.9 294.68,167.46 " fill="none" id="resource-backto-microsoft_resource" style="stroke:#FFAF37;stroke-width:2.0;"/><polygon fill="none" points="211.27,47.05,216.587,65.2635,226.4516,58.4306,211.27,47.05" style="stroke:#FFAF37;stroke-width:2.0;"/></g><!--SRC=[ZP11Jy9048Nl_HMRS2O1YHOIBqXYz4ACU6-MtLdOjDqXirCRKF-xHT0iMoXUvttptfjPMmq2oWrlHGdb4iWdFhTk8qcMOag4zGmB9D4pHffH6ekFwFWgC9SbY2Sete6jaZ7njhOgT-2zk0ca1wdo5M7bzC6UIJhVIE0ue6Q5z7xAJ7PPCGHbz6GvDYOcOzFUI0_JEsXXI1heY0m60psSnCZLgCwx_uY5tO4OXa-R8qEhPYlYX-fikIU2agr3V_MB7L-arjQjn6qmUprq8WTqCb-ifSPwJnjP-336Cn0WRpSmQrq5ax4swLdu-HASgFthXDnL19a3hf7oJ3kV4QZc7va75Xz9ydNaBYkbLOGU3JUwnueKXEhfB7Av_-pt-vqLaZFk_zYAs6wr7P5y0m00]--></g></svg>

<svg xmlns="http://www.w3.org/2000/svg" width="415" height="374" viewBox="0 0 415 374"><rect width="300" height="39.789" x="48" y="328.58" fill="#3D176E" rx="2.5" ry="2.5" style="stroke:#000d19;stroke-width:.5"/><circle cx="63" cy="348.474" r="11" fill="#ADD1B2" style="stroke:#181818;stroke-width:1"/><path d="M65.969 354.115q-.578.297-1.219.438-.64.156-1.344.156-2.5 0-3.828-1.64-1.312-1.657-1.312-4.782t1.312-4.781q1.328-1.656 3.828-1.656.703 0 1.344.156.656.156 1.219.453v2.719q-.625-.579-1.219-.844-.594-.281-1.219-.281-1.343 0-2.031 1.078-.687 1.062-.687 3.156t.687 3.172q.688 1.062 2.031 1.062.625 0 1.219-.265.594-.281 1.219-.86z"/><text x="82" y="354.36" fill="#D9B8FF" font-family="Helvetica" font-size="17" textLength="258">azure_network_dns_record_set</text><rect width="166" height="39.789" x="7" y="167.79" fill="#3D176E" rx="2.5" ry="2.5" style="stroke:#000d19;stroke-width:.5"/><circle cx="22" cy="187.685" r="11" fill="#ADD1B2" style="stroke:#181818;stroke-width:1"/><path d="M24.969 193.325q-.578.297-1.219.438-.64.156-1.344.156-2.5 0-3.828-1.64-1.312-1.657-1.312-4.782t1.312-4.781q1.328-1.656 3.828-1.656.703 0 1.344.156.656.156 1.219.453v2.719q-.625-.578-1.219-.844-.594-.281-1.219-.281-1.343 0-2.031 1.078-.687 1.062-.687 3.156t.687 3.172q.688 1.062 2.031 1.062.625 0 1.219-.265.594-.281 1.219-.86z"/><text x="41" y="193.57" fill="#D9B8FF" font-family="Helvetica" font-size="17" textLength="124">dns_record_set</text><rect width="200" height="39.789" x="208" y="167.79" fill="#3D176E" rx="2.5" ry="2.5" style="stroke:#000d19;stroke-width:.5"/><circle cx="223" cy="187.685" r="11" fill="#ADD1B2" style="stroke:#181818;stroke-width:1"/><path d="M225.969 193.325q-.578.297-1.219.438-.64.156-1.344.156-2.5 0-3.828-1.64-1.312-1.657-1.312-4.782t1.312-4.781q1.328-1.656 3.828-1.656.703 0 1.344.156.656.156 1.219.453v2.719q-.625-.578-1.219-.844-.594-.281-1.219-.281-1.344 0-2.031 1.078-.687 1.062-.687 3.156t.687 3.172q.688 1.062 2.031 1.062.625 0 1.219-.265.594-.281 1.219-.86z"/><text x="242" y="193.57" fill="#D9B8FF" font-family="Helvetica" font-size="17" textLength="158">microsoft_resource</text><rect width="113" height="39.789" x="141.5" y="7" fill="#3D176E" rx="2.5" ry="2.5" style="stroke:#000d19;stroke-width:.5"/><circle cx="156.5" cy="26.895" r="11" fill="#ADD1B2" style="stroke:#181818;stroke-width:1"/><path d="M159.469 32.535q-.578.297-1.219.438-.64.156-1.344.156-2.5 0-3.828-1.64-1.312-1.657-1.312-4.782t1.312-4.781q1.328-1.656 3.828-1.656.703 0 1.344.156.656.156 1.219.453v2.719q-.625-.578-1.219-.844-.594-.281-1.219-.281-1.344 0-2.031 1.078-.687 1.062-.687 3.156t.687 3.172q.688 1.062 2.031 1.062.625 0 1.219-.265.594-.281 1.219-.86z"/><text x="175.5" y="32.78" fill="#D9B8FF" font-family="Helvetica" font-size="17" textLength="71">resource</text><g fill="none"><path d="M113.154 222.723c20.76 30.52 50.986 74.967 71.776 105.527" style="stroke:#ffaf37;stroke-width:2"/><path d="m103.03 207.84 5.163 18.258 9.922-6.75z" style="stroke:#ffaf37;stroke-width:2"/></g><path fill="none" d="M284.48 222.637c-21.14 30.52-51.99 75.053-73.16 105.613m83.41-120.41-15.182 11.38 9.865 6.834z" style="stroke:#ffaf37;stroke-width:2"/><g fill="none"><path d="M174.846 61.933c-20.76 30.52-50.986 74.967-71.776 105.527" style="stroke:#ffaf37;stroke-width:2"/><path d="m184.97 47.05-15.085 11.509 9.922 6.749z" style="stroke:#ffaf37;stroke-width:2"/></g><path fill="none" d="M221.52 61.847c21.14 30.52 51.99 75.053 73.16 105.613M211.27 47.05l5.317 18.213 9.865-6.832z" style="stroke:#ffaf37;stroke-width:2"/></svg>
